X:1
T:Cantique de Jean Racine
T:Gabriel Faure 
%%score [ 1 2 3 4 ]
L:1/8
Q:1/4=80
M:4/4
K:Db
V:1 treble nm="Soprano"
V:2 treble nm="Alto"
V:3 treble-8 nm="Tenor"
V:4 bass nm="Bass"
V:1
 z8 | z8 | z8 | z8 | z8 | z8 | z8 | z8 | z8 | z8 | z8 | z8 | z8 | z8 | z8 | z8 | z8 | z8 | z8 | %19
w: |||||||||||||||||||
 z8 | z4 z2!pp! A2 | d2 c2 B2 c2 | B4 !breath!A2 c2 | B4 d4 |"^cresc." c6 c2 | B2 B2 d2 d2 | %26
w: |Nous|rom- pons le si-|len- ce, Di-|vin Sau-|veur jet-|te sur nous les|
 !breath!c6 A2 |!f! (f2 c2) (d2 f2) |"^dim." e2 d2 c2 c2 |!p! c4 B4 | A4 z4 | z8 | z8 | z8 | z8 | %35
w: yeux, Di-|vin _ Sau _|veur jet- te sur|nous les|yeux!|||||
 z8 | z8 | z8 | z4 z2 c2 | c4 B4 | =G2 =E2 F2 GG | A4 B2 c2 | c4 !breath!d2"^cresc." d2 | d4 c4 | %44
w: |||Ré-|pands sur|nous le feu de ta|grâ- ce puis-|san- te, que|tout l'en-|
 !breath!=A2 A2 B2 c2 |!f! d2 d2 e2 f2 | f3 g g2!p! g2 | f2 c2 c4 | c2 (de) d2 d2 | c2 =G2 G2 G2 | %50
w: fer, que tout l'en-|fer fuie au son|de ta voix, Dis-|si _ pe|le som _ meil d'une|â- me lan- guis-|
 (=G2 =AB) A2 z2 | z8 | z2!mf! B2 f2 B2 | c2 cc c2 de | (e2 d2) z4 | z8 | z2!f! B2 f2 d2 | %57
w: san _ _ te,||qui la con-|duit à l'ou- bli de tes|lois, _||qui la con-|
 e2 ee e2 de | f4 z4 | z8 | z8 | z8 | z8 | z8 | z8 | z8 | z4 z2!p! A2 | d2 c2 B2 A2 | A4 G2 B2 | %69
w: duit à l'ou- bli de tes|lois!||||||||Re-|çois les chants qu'il|of- fre à|
"^cresc." e2 d2 c2 B2 | B4 A2 A2 |!f! (f2 c2) (d2 f2) | (e2 d2) c2 c2 | c4 B3 B | A6!pp! A2 | %75
w: ta gloi- re͜~im- mor-|tel- le et|de _ tes _|dons _ qu'il re-|tour- ne com-|blé, Et|
 (B2 F2) (G2 B2) |!<(! (A2 e2)!>(! d2 F2!<)!!>)! |!pp! F4 E3 D | D6 z2 | z8 | z4 z2!pp! F2 | %81
w: de _ tes _|dons _ qu'il re-|tour- ne com-|blé!||Et|
 E4 G4 | F6 z2 | z8 | z4!ppp! F2 A2 |"^Poco rall." F8 | E6 D2 | (D8 | !fermata!D8) |] %89
w: de tes|dons||qu'il re-|tour-|ne com-|blé!||
V:2
 z8 | z8 | z8 | z8 | z8 | z8 | z8 | z8 | z8 | z8 | z8 | z8 | z8 | z8 | z8 | z8 | z8 | z8 | %18
w: ||||||||||||||||||
 z4 z2!pp! F2 | A2 A2 G2 G2 | F6 F2 | F2 F2 F2 =E2 | =E4 !breath!F2 A2 | A4 =G4 | %24
w: De|la pai- si- ble|nuit, nous|rom- pons le si-|len- ce, Di-|vin Sau-|
"^cresc." E2 =E2 F2 _G2 | F4 =G4 | (=G4 !breath!A2) _G2 |!f! F4 (F2 _c2) |"^dim." B2 =G2 A2 F2 | %29
w: veur jet- te sur|nous les|yeux, _ Di-|vin Sau _|veur jet- te sur|
!p! E4 D4 | C4 z4 | z8 | z8 | z8 | z8 | z8 | z8 | z8 | z4 z2 E2 | E4 D4 | C2 C2 =D2 =EE | %41
w: nous les|yeux!||||||||Ré-|pands sur|nous le feu de ta|
 F4 =G2 =A2 | =A4 !breath!B2"^cresc." B2 | B4 G4 | !breath!F2 F2 F2 F2 |!f! F2 B2 B2 A2 | %46
w: grâ- ce puis-|san- te, que|tout l'en-|fer, que tout l'en-|fer fuie au son|
 A3 G G2!p! B2 | =A2 E2 (E2 B2) | =A2 A2 B2 F2 | =E2 B,2 B,2 F2 | =E4 F2 z2 | z4 z2!mf! E2 | %52
w: de ta voix, Dis-|si _ pe _|le som meil d'une|â- me lan- guis-|sant- te|qui|
 B6 B2 | B2 BB =A2 AA | (=A2 B2) z4 | z4 z2!f! F2 | B6 F2 | A2 AA B2 BB | =A4 z4 | z8 | z8 | z8 | %62
w: la con-|duit à l'ou- bli de tes|lois, _|qui|la con-|duit à l'ou bli de tes|lois!||||
 z8 | z8 | z4 z2!p! F2 | A2 A2 G2 G2 | F4 F4 | F6 F2 | E4 E2 z2 |"^cresc." G6 G2 | F4 F2 G2 | %71
w: ||Re-|çois les chants qu'il|of- fre|à ta|gloi- re|im- mor-|tel- le et|
!f! F4 (F2 _c2) | (B2 =G2) A2 A2 | =G4 G3 G | E4!pp! F4 | (D2 =D2) (E2 _F2) | %76
w: de tes _|dons _ qu'il re-|tour- ne com-|blé, Et|de _ tes _|
!<(! (E2 __B2)!>(! A2 D2!<)!!>)! |!pp! C4 C3 D | D6 z2 | z8 | z4 z2!pp! D2 | D4 C4 | D6 z2 | z8 | %84
w: dons _ qu'il re-|tour- ne com-|blé!||Et|de tes|dons||
 z4!ppp! C2 D2 | D8 | C6 D2 | (D8 | !fermata!D8) |] %89
w: qu'il re-|tour-|ne com-|blé!||
V:3
 z8 | z8 | z8 | z8 | z8 | z8 | z8 | z8 | z8 | z8 | z8 | z8 | z8 | z8 | z4 z2!pp! A2 | d2 c2 B2 A2 | %16
w: ||||||||||||||No-|tre͜~u~~- nique- es- pé-|
 c4 d2 d2 | d4 c4 | d4 d2 d2 | d4 d2 c2 | d6 A2 | B2 c2 d2 c2 | c4 !breath!c2 e2 | f4 B4 | %24
w: ran- ce, Jour|é- ter-|nel de la|ter- re͜~et des|cieux, nous|rom- pons le si-|len- ce, Di-|vin Sau-|
"^cresc." A2 B2 A2 =A2 | B6 B2 | (B4 !breath!A2) c2 |!f! (d2 =A2) (B2 =d2) |"^dim." e2 B2 A2 A2 | %29
w: veur jet- te sur|nous les|yeux, _ Di-|vin _ Sau _|veur jet- te sur|
!p! =G4 G4 | A4 z4 | z8 | z8 | z8 | z8 | z8 | z8 | z8 | z4 z2 A2 | A4 F4 | =E2 c2 c2 BB | %41
w: nous les|yeux!||||||||Ré-|pands sur|nous le feu de ta|
 (A2 f2) f2 e2 | e4 !breath!d2"^cresc." f2 | f4 e4 | !breath!c2 f2 f2 e2 |!f! d2 B2 c2 =d2 | %46
w: grâ _ ce puis-|san- te, que|tout l'en-|fer, que tout l'en-|fer fuie au son|
 =d3 e e2 z2 | z2!p! g2 f2 e2 | e2 (dc) d2 z2 | z2 (d2 c2) B2 | (B2 =A=G) A2 z2 | z2!mf! B2 f2 f2 | %52
w: de ta voix,|Dis- si- pe|le som _ meil|lan _ guis-|san _ _ te,|qui la con-|
 f2 e2 d2 f2 | g4 (fe)(dc) | (c2 B2) z4 | z2!f! B2 f2 f2 | (f2 e2) d2 d2 | c4 B2 B2 | c4 z4 | %59
w: duit _ à l'ou-|bli de _ tes _|lois, _|qui la con-|duit _ à l'ou-|bli de tes|lois!|
 z4 z4 | z4 z2!p! AA | (d2 c2) B2 A2 | c4 d2 d2 | d4 c4 | d4 d2 d2 | d4 d2 c2 | d8 | %67
w: |à ce|peu _ ple fi-|dè- le pour|te bé-|nir main- te-|nant ras- sem-|blé,|
 z2!p! (A2 d2) c2 | B4 B4 |"^cresc." z2 B2 (e2 d2) | c4 c2 c2 |!f! (d2 =A2) (B2 =d2) | %72
w: à _ ta|gloi- re|im- mor _|tel- le et|de _ tes _|
 (e2 B2) A2 A2 | =G4 G3 G | A4!pp! _c4 | (B2 A2) (G2 =G2) |!<(! (A2 c2)!>(! d2 B2!<)!!>)! | %77
w: dons _ qu'il re-|tour- ne com-|blé, Et|de _ tes _|dons _ qu'il re-|
!pp! A4 _G3 G | F6 z2 | z8 | z4 z2!pp! A2 | (G2 F2) E4 | F6 z2 | z8 | z4!ppp! =A2 _A2 | B8 | %86
w: tour- ne com-|blé!||Et|de _ tes|dons||qu'il re-|tour-|
 G6 G2 | F8- | !fermata!F8 |] %89
w: ne com-|blé!||
V:4
 z8 | z8 | z8 | z8 | z8 | z8 | z8 | z8 | z8 | z8 | z8 | z8 | z4 z2!pp! F,>F, | A,4 G,3 G, | %14
w: ||||||||||||Ver- be͜~é-|gal au Très-|
 F,6 F,2 | F,2 F,2 D,2 A,2 | (A,2 G,2) F,2 F,2 | E,4 G,4 | F,4 F,2 F,2 | F,4 E,2 E,2 | D,4 C,4 | %21
w: Haut No-|tre͜~u- nique- es- pé-|ran _ ce, Jour|é- ter-|nel de la|ter- re͜~et des|cieux, nous|
 B,,2 A,,2 =G,,2 C,2 | F,,4 !breath!F,2 C,2 | D,4 E,4 |"^cresc." A,2 =G,2 F,2 E,2 | D,4 E,4 | %26
w: rom- pons le si-|len- ce, Di|vin Sau-|veur jet- te sur|nous les|
 (=E,4 !breath!F,2) A,2 |!f! (D,2 F,2) (B,2 A,2) |"^dim." =G,2 =E,2 F,2 =D,2 |!p! E,4 E,4 | %30
w: yeux, _ Di-|vin * Sau _|veur jet- te sur|nous les|
 A,,4 z4 | z8 | z8 | z8 | z8 | z8 | z8 | z8 | z4 z2 A,,2 | A,,4 B,,4 | C,2 C,2 C,2 C,C, | %41
w: yeux!||||||||Ré-|pands sur|nous le feu de ta|
 F,4 F,2 F,2 | B,,4 !breath!B,,2"^cresc." B,2 | B,4 E,4 | !breath!F,2 F,2 =G,2 =A,2 | %45
w: grâ- ce puis-|san- te, que|tout l'en-|fer, que tout l'en-|
!f! B,2 B,2 B,2 B,2 | E,3 E, E,2 z2 | z2!p! B,2 =A,2 G,2 | F,2 F,2 B,,2 z2 | z2 (F,2 =E,2) _D,2 | %50
w: fer fuie au son|de ta voix,|Dis- si- pe|le som- meil|lan _ guis-|
 C,4 F,,2!mf! F,2 | B,4 A,4 | G,4 F,2 D,2 | E,4 F,2 F,2 | G,4 z2!f! F,2 | B,4 (B,2 A,2) | %56
w: san- te, qui|la con-|duit à l'ou|bli de tes|lois, qui|la con _|
 G,4 F,2 B,2 | A,4 G,2 G,2 |!>(! F,6!p! F,2!>)! | A,2 A,2 G,2 G,2 | F,4 F,2 F,2 | F,4 D,2 A,2 | %62
w: duit à l'ou-|bli de tes|lois! Ô|Christ sois fa- vo-|ra- ble͜~à ce|peu- ple fi-|
 (A,2 G,2) F,2 F,2 | E,4 G,4 | F,4 F,2 F,2 | F,4 E,2 E,2 | D,2 A,,2 D,2 C,2 | B,,4 B,,4 | %68
w: dè _ le pour|te bé-|nir main- te-|nant ras- sem-|blé, Re- çois les|chants qu'il|
 E,2 B,,2 E,2 D,2 |"^cresc." C,4 C,4 | (F,,2 C,2) F,2 E,2 |!f! (D,2 F,2) (B,2 A,2) | %72
w: of- fre à ta|re͜~im- mor-|tel _ le et|de _ tes _|
 (=G,2 =E,2) F,2 =D,2 | E,4 D,3 D, | C,4!pp! D,4 | (G,,2 B,,2) (E,2 D,2) | %76
w: dons _ qu'il re-|tour- ne com-|blé, Et|de _ tes _|
!<(! (C,2 G,2)!>(! F,2 =G,2!<)!!>)! |!pp! A,4 A,,3 A,, | D,6 z2 | z8 | z4 z2!pp! A,,2 | A,,4 A,,4 | %82
w: dons _ qu'il re-|tour- ne com-|blé!||Et|de tes|
 D,6 z2 | z8 | z4!ppp! F,,2 F,,2 | G,,8 | A,,6 A,,2 | D,8- | !fermata!D,8 |] %89
w: dons||qu'il re-|tour-|ne com-|blé!||

